svgs/thin/folder-xmark.svg

<svg xmlns="http://www.w3.org/2000/svg" viewBox="0 0 512 512"><!--! Font Awesome Pro 6.3.0 by @fontawesome - https://fontawesome.com License - https://fontawesome.com/license (Commercial License) Copyright 2023 Fonticons, Inc. --><path d="M464 96h-192L217.4 41.38C211.4 35.37 203.2 32 194.7 32H48C21.49 32 0 53.49 0 80v352C0 458.5 21.49 480 48 480h416c26.51 0 48-21.49 48-48v-288C512 117.5 490.5 96 464 96zM496 432c0 17.67-14.33 32-32 32h-416c-17.67 0-32-14.33-32-32v-352c0-17.67 14.33-32 32-32h140.1c8.484 0 16.62 3.371 22.62 9.371L265.4 112H464c17.67 0 32 14.33 32 32V432zM333.7 210.3c-3.125-3.125-8.188-3.125-11.31 0L256 276.7L189.7 210.3c-3.125-3.125-8.188-3.125-11.31 0s-3.125 8.188 0 11.31L244.7 287.1l-66.34 66.34c-3.125 3.125-3.125 8.188 0 11.31c3.125 3.127 8.188 3.127 11.31 0L256 299.3l66.34 66.34c3.125 3.127 8.188 3.127 11.31 0c3.125-3.125 3.125-8.188 0-11.31L267.3 287.1l66.34-66.34C336.8 218.5 336.8 213.5 333.7 210.3z"/></svg>

<svg xmlns="http://www.w3.org/2000/svg" viewBox="0 0 512 512"><!-- Font Awesome Pro 6.0.0-alpha2 by @fontawesome - https://fontawesome.com License - https://fontawesome.com/license (Commercial License) --><path d="M464 96H272L217.375 41.375C211.371 35.371 203.234 32 194.746 32H48C21.492 32 0 53.492 0 80V432C0 458.508 21.492 480 48 480H464C490.508 480 512 458.508 512 432V144C512 117.492 490.508 96 464 96ZM496 432C496 449.672 481.672 464 464 464H48C30.328 464 16 449.672 16 432V80C16 62.328 30.328 48 48 48H188.117C196.602 48 204.742 51.371 210.742 57.371L265.371 112H464C481.672 112 496 126.328 496 144V432ZM333.656 210.344C330.531 207.219 325.469 207.219 322.344 210.344L256 276.686L189.656 210.344C186.531 207.219 181.469 207.219 178.344 210.344S175.219 218.531 178.344 221.656L244.688 287.998L178.344 354.342C175.219 357.467 175.219 362.529 178.344 365.654C181.469 368.781 186.531 368.781 189.656 365.654L256 299.311L322.344 365.654C325.469 368.781 330.531 368.781 333.656 365.654C336.781 362.529 336.781 357.467 333.656 354.342L267.312 287.998L333.656 221.656C336.781 218.531 336.781 213.469 333.656 210.344Z"/></svg>
